!!!ONB: MCCC : ICD0086_00 : Extracted Monophonic Melody
!!!COM: Debussy, Claude
!!!OTL: Syrinx
!!!SCT: CD 137 ; L.129
!!!ODT: 1913///
**kern
*staff1
*IFlute
=1
*clefG2
*k[b-e-a-d-g-]
*D-:
*M3/4
8.bb-
32aa
32bb
8.aa-
32gg
32aa
16gg-
16ff
16ee
16dd-
=2
8.bb-
32ccc
32ccc-
2bb-
=3
8.bb-
32aa
32bb
8.aa-
32gg
32aa
16gg-
16ff
16ee
16dd-
=4
8.b-
32f#
32g
8b
24g
24cc
24f#
24dd-
24ee
24dd-
24b
24f#
=5
8.b-
32f#
32g
4b
4cc-
=6
8.r
16aa-
2ccc-[
=7
2ccc-]
4ddd-
=8
2eee-
4bb-
=9
8.b-
32a
32b
8.a-
32g
32a
16g-
16f
16e
16d-
=10
8.b-
32a
32b
8.a-
32g
32a
16g-
16a-
16b-
16dd-
=11
16ee-
16ff
16ee-
16dd-
4b-[
16b-]
16a-
16d-
16e-
=12
32g-
32a-
32b-
32dd-
32ee-
32ff
32ee-
32dd-
4b-[
8b-]
24dd-
24ee-
24gg-
=13
8aa[
32aa]
32aa-
32gg
32gg-
8ee-[
32ee-]
32dd
32dd-
32cc
8a[
32a]
32a-
32g
32g-
=14
12e-
12f
12f-
4e-
8f
8f-
=15
12e-
12f
12f-
12e-
12f
12f-
12e-
12f-
12e-
=16
12d
12e
12d-
8c
8d-
8g-
2..r
8b--
=17
12d
12f
12d
4d-
4dd-
=18
2bb-
24cc-
24dd-
24ee--
24dd-
24dd-
16bb-]
24cc-
16ddd-
24ee--
24ff-
24ee--
24cc-
4bb-
32a
32a-]
32g-
8b--
32g-
32a-
32a
=19
12d
12f
12d
4d-
4ee-[
=20
8ee-]
24dd-
24cc-
24b-
4a-
=21
8ee-
24dd-
24ee-
24ff
16ee-
16dd-
16cc-
16b-
4b-
=22
8dd-
4b-
=23
8gg-
8ff
4b-
4bb-[
=24
8.bb-]
32aa
32bb
8.aa-
32gg
32aa
16gg-
16ff
16ee
16dd-
=25
16eee--
16ddd-
4bb-[
=26
8.bb-]
32aa
32bb
8.aa-
32gg
32aa
16gg-
16ff
16ee
16dd-
=27
*M2/4
24b-
24a
24b
24a-
24g
24a
16g-
16f
16e
16d-
=28
*M3/4
12f
12e
[4d-
=29
4d-_
12d-]
12a
12g
4d-
=30
[4b
10b]
10a
10g
10f
10e-
=31
2.d-
==
*-
